; generated by PrusaSlicer 2.7.1+win64 on 2025-04-22 at 16:57:40 UTC


;
;
; 

; external perimeters extrusion width = 0.45mm
; perimeters extrusion width = 0.45mm
; infill extrusion width = 0.45mm
; solid infill extrusion width = 0.45mm
; top infill extrusion width = 0.40mm
; first layer extrusion width = 0.42mm

; external perimeters extrusion width = 0.45mm
; perimeters extrusion width = 0.45mm
; infill extrusion width = 0.45mm
; solid infill extrusion width = 0.45mm
; top infill extrusion width = 0.40mm
; first layer extrusion width = 0.42mm

M73 P0 R37
M73 C37
M73 Q0 S38
M73 D37
M201 X1000 Y1000 Z200 E5000 ; sets maximum accelerations, mm/sec^2
M203 X200 Y200 Z12 E120 ; sets maximum feedrates, mm / sec
M204 S1250 T1250 ; sets acceleration (S) and retract acceleration (R), mm/sec^2
M205 X8.00 Y8.00 Z0.40 E4.50 ; sets the jerk limits, mm/sec
M205 S0 T0 ; sets the minimum extruding and travel feed rate, mm/sec

; printing object ikea watering can - spout.stl id:0 copy 0
; stop printing object ikea watering can - spout.stl id:0 copy 0
; printing object ikea watering can - spout.stl id:1 copy 0
; stop printing object ikea watering can - spout.stl id:1 copy 0

;TYPE:Custom
M862.3 P "MK3S" ; printer model check
M862.1 P0.4 ; nozzle diameter check
M115 U3.13.2 ; tell printer latest fw version
G90 ; use absolute coordinates
M83 ; extruder relative mode
M104 S215 ; set extruder temp
M140 S60 ; set bed temp
M190 S60 ; wait for bed temp
M109 S215 ; wait for extruder temp
G28 W ; home all without mesh bed level
G80 X60.7447 Y38.7071 W127.079 H132.157 ; mesh bed levelling

G1 Z0.2 F720
G1 Y-3 F1000 ; go outside print area
G92 E0
G1 X60 E9 F1000 ; intro line
G1 X100 E12.5 F1000 ; intro line

G92 E0
M221 S95

; Don't change E values below. Excessive value can damage the printer.
M907 E430 ; set extruder motor current
G21 ; set units to millimeters
G90 ; use absolute coordinates
M83 ; use relative distances for extrusion
M900 K0.05 ; Filament gcode LA 1.5
M900 K30 ; Filament gcode LA 1.0

M107
;LAYER_CHANGE
;Z:0.2
;HEIGHT:0.2
;BEFORE_LAYER_CHANGE
G92 E0.0
;0.2


G1 E-.8 F2100
G1 Z.2 F720
;AFTER_LAYER_CHANGE
;0.2
G1 X80.365 Y87.772 F10800
G1 Z.2 F720
G1 E.8 F2100
M204 S800
;TYPE:Skirt/Brim
;WIDTH:0.42
G1 F1200
G1 X117.414 Y53.85 E1.57501
G1 X120.851 Y50.787 E.14435
G1 X124.361 Y48.13 E.13803
G1 X128.555 Y45.523 E.15483
G1 X132.895 Y43.41 E.15135
G1 X138.206 Y41.517 E.17678
G1 X143.249 Y40.321 E.16251
G1 X153.176 Y38.915 E.31436
G1 X158.597 Y39.191 E.17019
G1 X160.137 Y39.883 E.05294
M73 Q0 S37
G1 X163.122 Y42.87 E.1324
G1 X163.565 Y43.485 E.02376
G1 X185.683 Y87.576 E1.54664
G1 X187.045 Y91.472 E.12941
G1 X187.217 Y92.291 E.02624
G1 X187.616 Y95.857 E.11251
G1 X187.636 Y149.811 E1.69169
G1 X187.217 Y153.796 E.12564
G1 X187.045 Y154.616 E.02627
G1 X185.785 Y158.265 E.12104
G1 X185.304 Y159.262 E.03471
G1 X183.391 Y162.307 E.11275
G1 X182.88 Y162.971 E.02627
G1 X179.962 Y165.889 E.12939
G1 X179.298 Y166.4 E.02627
G1 X176.253 Y168.314 E.11277
G1 X175.255 Y168.795 E.03474
G1 X171.861 Y169.981 E.11273
G1 X171.049 Y170.182 E.02623
G1 X167.141 Y170.63 E.12334
G1 X159.836 Y170.664 E.22905
G1 X156.893 Y170.305 E.09296
G1 X155.993 Y169.995 E.02985
G1 X65.38 Y116.461 E3.2999
G1 X64.734 Y115.901 E.02681
M73 P1 R37
M73 C36
M73 Q1 S37
G1 X61.438 Y111.788 E.16526
G1 X60.927 Y110.523 E.04278
G1 X61.052 Y109.509 E.03203
G1 X62.973 Y104.074 E.18074
G1 X63.609 Y103.113 E.03613
G1 X80.32 Y87.812 E.71042
M204 S1000
;WIPE_START
G1 F8640
G1 X80.365 Y87.772 E-.0139
G1 X82.876 Y85.473 E-.7861
;WIPE_END
G1 Z.6 F720
G1 X116.32 Y92.285 F10800
G1 Z.2 F720
G1 E.8 F2100
M204 S800
G1 F1200
G1 X117.533 Y88.74 E.11748
G1 X119.919 Y84.907 E.14156
G1 X122.967 Y81.925 E.1337
G1 X126.223 Y79.916 E.11996
G1 X129.787 Y78.635 E.11875
G1 X134.024 Y78.106 E.13388
G1 X166.812 Y78.107 E1.02804
G1 X170.661 Y78.549 E.12148
G1 X174.335 Y79.792 E.12161
G1 X178.262 Y82.252 E.14529
G1 X180.958 Y84.98 E.12026
G1 X183.026 Y88.204 E.12009
G1 X184.503 Y92.311 E.13685
G1 X184.972 Y96.29 E.12562
G1 X184.954 Y150.103 E1.68727
G1 X184.437 Y154.054 E.12494
G1 X183.022 Y157.889 E.12817
G1 X180.783 Y161.323 E.12854
G1 X177.836 Y164.173 E.12854
G1 X174.329 Y166.297 E.12855
G1 X170.461 Y167.582 E.1278
G1 X166.891 Y167.977 E.11262
G1 X159.797 Y167.993 E.22243
G1 X158.306 Y167.719 E.04753
G1 X156.951 Y167.004 E.04804
G1 X155.94 Y165.963 E.0455
G1 X155.272 Y164.629 E.04678
G1 X155.064 Y163.617 E.03239
G1 X155.054 Y162.11 E.04725
G1 X155.135 Y161.428 E.02153
G1 X155.678 Y160.033 E.04694
G1 X156.601 Y158.882 E.04626
G1 X157.511 Y158.224 E.03521
G1 X158.217 Y157.891 E.02447
G1 X159.718 Y157.604 E.04792
G1 X166.453 Y157.599 E.21117
G1 X168.419 Y157.377 E.06203
G1 X170.09 Y156.793 E.0555
G1 X171.588 Y155.85 E.0555
G1 X172.841 Y154.598 E.05554
G1 X173.783 Y153.099 E.05551
G1 X174.367 Y151.429 E.05547
G1 X174.596 Y149.397 E.06412
G1 X174.596 Y96.69 E1.65259
G1 X174.367 Y94.659 E.06408
G1 X173.783 Y92.988 E.0555
G1 X172.84 Y91.489 E.05553
G1 X171.588 Y90.237 E.05552
G1 X170.089 Y89.295 E.05551
G1 X168.418 Y88.71 E.05551
G1 X166.39 Y88.482 E.06399
G1 X134.429 Y88.482 E1.00211
G1 X132.399 Y88.71 E.06405
M73 P1 R36
G1 X130.729 Y89.295 E.05548
G1 X129.23 Y90.237 E.05551
G1 X127.978 Y91.49 E.05554
G1 X127.035 Y92.988 E.0555
G1 X126.451 Y94.659 E.0555
G1 X126.22 Y96.708 E.06465
G1 X126.176 Y100.463 E.11774
G1 X125.705 Y102.153 E.05501
G1 X125.184 Y103.027 E.0319
G1 X124.278 Y103.959 E.04075
G1 X122.988 Y104.677 E.04629
G1 X121.512 Y104.974 E.04721
G1 X120.115 Y104.936 E.04382
G1 X118.92 Y104.615 E.0388
G1 X117.654 Y103.849 E.04639
G1 X116.637 Y102.668 E.04887
G1 X116.138 Y101.547 E.03847
G1 X115.866 Y100.262 E.04118
G1 X115.863 Y95.995 E.13379
G1 X116.313 Y92.345 E.11531
M204 S1000
G1 X116.687 Y92.391 F10800
M204 S800
G1 F1200
G1 X116.692 Y92.351 E.00126
G1 X117.883 Y88.883 E.11497
G1 X120.199 Y85.16 E.13748
M73 P2 R36
G1 X123.183 Y82.235 E.13101
M73 Q2 S37
G1 X126.369 Y80.264 E.11747
G1 X129.895 Y78.997 E.11748
G1 X134.036 Y78.483 E.13083
G1 X166.802 Y78.484 E1.02735
G1 X170.598 Y78.921 E.11981
G1 X174.193 Y80.142 E.11904
G1 X178.043 Y82.559 E.14253
G1 X180.675 Y85.231 E.1176
G1 X182.697 Y88.389 E.11757
G1 X184.141 Y92.418 E.13419
G1 X184.595 Y96.301 E.12258
G1 X184.578 Y150.067 E1.6858
G1 X184.076 Y153.944 E.12258
M73 D36
G1 X182.694 Y157.701 E.12552
G1 X180.505 Y161.067 E.12589
G1 X177.622 Y163.862 E.1259
G1 X174.189 Y165.946 E.12592
G1 X170.4 Y167.209 E.12523
G1 X166.873 Y167.6 E.11126
G1 X159.814 Y167.616 E.22133
G1 X158.454 Y167.372 E.04332
G1 X157.2 Y166.719 E.04433
G1 X156.232 Y165.722 E.04357
G1 X155.621 Y164.484 E.04329
G1 X155.44 Y163.597 E.02838
G1 X155.431 Y162.12 E.04631
G1 X155.507 Y161.497 E.01968
G1 X155.99 Y160.246 E.04205
G1 X156.879 Y159.138 E.04454
G1 X157.715 Y158.542 E.03219
G1 X158.355 Y158.243 E.02215
G1 X159.77 Y157.978 E.04514
G1 X166.469 Y157.976 E.21004
G1 X168.503 Y157.747 E.06418
G1 X170.254 Y157.134 E.05817
G1 X171.825 Y156.147 E.05817
G1 X173.137 Y154.834 E.0582
G1 X174.125 Y153.264 E.05816
G1 X174.737 Y151.513 E.05816
G1 X174.973 Y149.418 E.0661
G1 X174.973 Y96.669 E1.65391
G1 X174.737 Y94.574 E.0661
G1 X174.125 Y92.824 E.05813
G1 X173.137 Y91.253 E.05819
G1 X171.825 Y89.94 E.0582
G1 X170.254 Y88.953 E.05817
G1 X168.503 Y88.34 E.05817
G1 X166.412 Y88.105 E.06597
G1 X134.408 Y88.105 E1.00346
G1 X132.315 Y88.34 E.06604
G1 X130.564 Y88.953 E.05817
G1 X128.993 Y89.94 E.05817
G1 X127.681 Y91.253 E.0582
G1 X126.693 Y92.824 E.05819
G1 X126.081 Y94.574 E.05813
G1 X125.843 Y96.685 E.06661
G1 X125.8 Y100.434 E.11755
G1 X125.367 Y101.983 E.05043
G1 X124.896 Y102.783 E.02911
G1 X124.067 Y103.645 E.0375
G1 X122.882 Y104.314 E.04267
G1 X121.508 Y104.596 E.04398
G1 X120.186 Y104.564 E.04146
G1 X119.089 Y104.277 E.03555
G1 X117.918 Y103.578 E.04276
G1 X116.97 Y102.487 E.04532
G1 X116.502 Y101.449 E.0357
G1 X116.239 Y100.204 E.0399
G1 X116.239 Y96.03 E.13087
G1 X116.68 Y92.45 E.1131
M204 S1000
G1 X117.05 Y92.496 F10800
M204 S800
G1 F1200
G1 X117.055 Y92.454 E.00133
G1 X118.233 Y89.026 E.11365
G1 X120.48 Y85.414 E.13338
G1 X123.399 Y82.544 E.12835
G1 X126.55 Y80.595 E.11617
G1 X130.002 Y79.359 E.11496
G1 X134.047 Y78.86 E.12779
G1 X166.791 Y78.861 E1.02667
G1 X170.496 Y79.285 E.11693
G1 X174.051 Y80.492 E.11771
G1 X177.79 Y82.84 E.13843
G1 X180.393 Y85.481 E.11627
G1 X182.368 Y88.574 E.11506
G1 X183.778 Y92.524 E.1315
G1 X184.218 Y96.312 E.11957
G1 X184.203 Y150.031 E1.68432
G1 X183.715 Y153.834 E.12022
M73 P3 R36
M73 Q3 S37
G1 X182.367 Y157.514 E.12288
G1 X180.227 Y160.811 E.12324
G1 X177.408 Y163.551 E.12326
G1 X174.05 Y165.595 E.12326
G1 X170.338 Y166.837 E.12273
G1 X166.855 Y167.224 E.10988
G1 X159.832 Y167.239 E.2202
G1 X158.551 Y167.006 E.04082
G1 X157.404 Y166.401 E.04066
G1 X156.525 Y165.483 E.03985
G1 X155.971 Y164.342 E.03977
G1 X155.817 Y163.577 E.02447
G1 X155.808 Y162.13 E.04537
G1 X155.878 Y161.567 E.01779
G1 X156.33 Y160.412 E.03889
G1 X157.154 Y159.397 E.04099
G1 X157.917 Y158.86 E.02925
G1 X158.491 Y158.595 E.01982
G1 X159.821 Y158.352 E.04239
G1 X166.485 Y158.354 E.20895
G1 X168.588 Y158.117 E.06636
M73 Q3 S36
G1 X170.419 Y157.476 E.06083
G1 X172.061 Y156.444 E.06081
G1 X173.434 Y155.071 E.06088
G1 X174.467 Y153.429 E.06082
G1 X175.107 Y151.598 E.06082
G1 X175.35 Y149.44 E.06809
G1 X175.35 Y96.648 E1.65526
G1 X175.107 Y94.49 E.06809
G1 X174.467 Y92.659 E.06082
G1 X173.434 Y91.016 E.06085
G1 X172.062 Y89.644 E.06084
G1 X170.418 Y88.611 E.06088
G1 X168.587 Y87.97 E.06083
G1 X166.433 Y87.728 E.06796
G1 X134.387 Y87.728 E1.00478
G1 X132.23 Y87.97 E.06806
G1 X130.399 Y88.611 E.06083
G1 X128.757 Y89.644 E.06082
G1 X127.384 Y91.016 E.06086
G1 X126.351 Y92.659 E.06085
G1 X125.711 Y94.49 E.06082
G1 X125.466 Y96.661 E.0685
G1 X125.423 Y100.405 E.1174
G1 X125.029 Y101.815 E.0459
G1 X124.607 Y102.54 E.0263
G1 X123.855 Y103.332 E.03424
G1 X122.775 Y103.951 E.03903
G1 X121.502 Y104.218 E.04078
G1 X120.255 Y104.193 E.03911
G1 X119.256 Y103.938 E.03233
G1 X118.181 Y103.306 E.0391
G1 X117.301 Y102.305 E.04179
G1 X116.867 Y101.35 E.03289
G1 X116.612 Y100.145 E.03862
G1 X116.614 Y96.064 E.12796
G1 X117.043 Y92.555 E.11084
M204 S1000
G1 X117.413 Y92.6 F10800
M204 S800
G1 F1200
G1 X117.418 Y92.558 E.00133
G1 X118.582 Y89.168 E.11238
G1 X120.788 Y85.632 E.13068
G1 X123.616 Y82.854 E.12429
G1 X126.696 Y80.944 E.11363
G1 X130.11 Y79.721 E.1137
G1 X134.059 Y79.237 E.12474
G1 X166.78 Y79.238 E1.02594
G1 X170.432 Y79.657 E.11526
M73 C35
G1 X173.908 Y80.842 E.11515
G1 X177.537 Y83.12 E.13434
G1 X180.086 Y85.701 E.11374
G1 X182.038 Y88.759 E.11375
G1 X183.416 Y92.63 E.12883
G1 X183.841 Y96.323 E.11656
G1 X183.827 Y149.995 E1.68285
G1 X183.353 Y153.725 E.11789
G1 X182.038 Y157.327 E.12023
G1 X179.949 Y160.556 E.12058
G1 X177.193 Y163.24 E.12062
G1 X173.909 Y165.245 E.12064
G1 X170.276 Y166.464 E.12015
G1 X166.837 Y166.847 E.10849
G1 X159.85 Y166.862 E.21907
G1 X158.649 Y166.641 E.03829
G1 X157.61 Y166.083 E.03698
G1 X156.82 Y165.247 E.03606
G1 X156.322 Y164.202 E.0363
G1 X156.194 Y163.557 E.02062
G1 X156.186 Y162.14 E.04443
G1 X156.249 Y161.639 E.01583
G1 X156.669 Y160.579 E.03575
G1 X157.428 Y159.658 E.03742
G1 X158.117 Y159.18 E.02629
G1 X158.625 Y158.948 E.01751
G1 X159.87 Y158.726 E.03965
G1 X166.502 Y158.732 E.20794
G1 X168.672 Y158.487 E.06847
G1 X170.584 Y157.818 E.06351
G1 X172.298 Y156.74 E.06349
G1 X173.731 Y155.308 E.06352
G1 X174.808 Y153.593 E.0635
G1 X175.477 Y151.682 E.06348
G1 X175.727 Y149.461 E.07008
G1 X175.727 Y96.627 E1.65657
G1 X175.477 Y94.406 E.07008
M73 P4 R36
M73 Q4 S36
G1 X174.808 Y92.494 E.06351
G1 X173.73 Y90.78 E.06349
G1 X172.298 Y89.347 E.06352
G1 X170.583 Y88.269 E.06351
G1 X168.672 Y87.6 E.06348
G1 X166.454 Y87.351 E.06998
G1 X134.366 Y87.351 E1.0061
G1 X132.146 Y87.6 E.07004
G1 X130.235 Y88.27 E.06349
G1 X128.52 Y89.347 E.0635
G1 X127.088 Y90.78 E.06352
G1 X126.01 Y92.494 E.06349
G1 X125.341 Y94.406 E.06351
G1 X125.089 Y96.638 E.07043
G1 X125.046 Y100.376 E.11721
G1 X124.69 Y101.648 E.04142
G1 X124.316 Y102.299 E.02354
G1 X123.64 Y103.021 E.03101
G1 X122.665 Y103.589 E.03538
G1 X121.495 Y103.84 E.03752
G1 X120.321 Y103.821 E.03681
G1 X119.42 Y103.597 E.02911
G1 X118.441 Y103.032 E.03544
G1 X117.631 Y102.121 E.03822
G1 X117.231 Y101.251 E.03002
G1 X116.985 Y100.086 E.03733
G1 X116.99 Y96.098 E.12504
G1 X117.406 Y92.659 E.10861
M204 S1000
G1 X117.781 Y92.705 F10800
M204 S800
G1 F1200
G1 X117.79 Y92.623 E.00259
G1 X118.932 Y89.311 E.10985
G1 X121.068 Y85.885 E.12659
G1 X123.833 Y83.163 E.12166
G1 X126.878 Y81.275 E.11234
G1 X130.217 Y80.083 E.11116
G1 X134.07 Y79.614 E.1217
G1 X166.769 Y79.615 E1.02525
G1 X170.369 Y80.029 E.11362
G1 X173.766 Y81.191 E.11257
G1 X177.284 Y83.401 E.13026
G1 X179.779 Y85.921 E.11119
G1 X181.709 Y88.944 E.11245
G1 X183.053 Y92.736 E.12614
G1 X183.464 Y96.333 E.11352
G1 X183.452 Y149.96 E1.68144
G1 X182.992 Y153.616 E.11554
M73 P4 R35
G1 X181.71 Y157.14 E.11758
G1 X179.67 Y160.301 E.11796
G1 X176.978 Y162.93 E.11798
G1 X173.769 Y164.894 E.11796
G1 X170.215 Y166.092 E.11759
G1 X166.819 Y166.47 E.10714
G1 X159.867 Y166.485 E.21798
G1 X158.8 Y166.294 E.03399
G1 X157.816 Y165.766 E.03501
G1 X157.118 Y165.013 E.03219
G1 X156.674 Y164.064 E.03285
G1 X156.571 Y163.537 E.01684
G1 X156.62 Y161.712 E.05724
G1 X157.007 Y160.748 E.03257
G1 X157.699 Y159.921 E.03381
G1 X158.315 Y159.502 E.02336
G1 X158.758 Y159.302 E.01524
G1 X159.919 Y159.1 E.03695
G1 X166.518 Y159.109 E.20691
G1 X168.757 Y158.857 E.07065
G1 X170.748 Y158.16 E.06614
G1 X172.535 Y157.037 E.06618
G1 X174.027 Y155.544 E.06618
G1 X175.15 Y153.758 E.06615
G1 X175.847 Y151.767 E.06614
G1 X176.104 Y149.482 E.0721
G1 X176.104 Y96.606 E1.65789
G1 X175.847 Y94.321 E.0721
G1 X175.15 Y92.33 E.06614
G1 X174.027 Y90.543 E.06618
G1 X172.535 Y89.05 E.06618
G1 X170.748 Y87.928 E.06616
G1 X168.756 Y87.23 E.06618
G1 X166.475 Y86.973 E.07197
G1 X134.345 Y86.973 E1.00741
G1 X132.062 Y87.23 E.07203
M73 D35
G1 X130.07 Y87.928 E.06618
G1 X128.283 Y89.05 E.06616
G1 X126.791 Y90.543 E.06618
G1 X125.668 Y92.33 E.06618
G1 X124.971 Y94.321 E.06614
G1 X124.713 Y96.615 E.07238
G1 X124.669 Y100.347 E.11702
G1 X124.351 Y101.482 E.03696
G1 X124.023 Y102.06 E.02084
G1 X123.423 Y102.712 E.02778
G1 X122.554 Y103.228 E.03169
G1 X121.488 Y103.462 E.03422
G1 X120.385 Y103.449 E.03459
G1 X119.582 Y103.256 E.02589
G1 X118.7 Y102.756 E.03179
G1 X117.961 Y101.936 E.03461
G1 X117.596 Y101.152 E.02712
G1 X117.358 Y100.028 E.03602
G1 X117.366 Y96.132 E.12216
M73 P5 R35
G1 X117.773 Y92.764 E.10637
M204 S1000
G1 X118.144 Y92.809 F10800
M204 S800
G1 F1200
G1 X118.153 Y92.727 E.00259
G1 X119.281 Y89.454 E.10855
G1 X121.349 Y86.138 E.12253
G1 X124.05 Y83.472 E.11899
G1 X127.024 Y81.623 E.1098
G1 X130.324 Y80.445 E.10986
M73 Q5 S36
G1 X134.081 Y79.991 E.11866
G1 X166.759 Y79.992 E1.0246
G1 X170.266 Y80.393 E.11068
G1 X173.623 Y81.541 E.11124
G1 X177.031 Y83.682 E.12619
G1 X179.497 Y86.172 E.10988
G1 X181.379 Y89.128 E.10987
G1 X182.69 Y92.841 E.12346
G1 X183.087 Y96.344 E.11054
G1 X183.076 Y149.925 E1.67999
G1 X182.63 Y153.508 E.11321
G1 X181.381 Y156.954 E.11493
G1 X179.391 Y160.047 E.11532
G1 X176.763 Y162.619 E.1153
G1 X173.628 Y164.544 E.11535
G1 X170.152 Y165.719 E.11505
G1 X166.801 Y166.093 E.10572
G1 X159.883 Y166.108 E.21691
G1 X158.948 Y165.946 E.02975
G1 X158.068 Y165.484 E.03116
G1 X157.445 Y164.824 E.02846
G1 X157.038 Y163.966 E.02978
G1 X156.948 Y163.516 E.01439
G1 X156.94 Y162.162 E.04245
G1 X156.99 Y161.787 E.01186
G1 X157.345 Y160.92 E.02937
G1 X157.968 Y160.186 E.03019
G1 X158.888 Y159.656 E.03329
G1 X159.965 Y159.475 E.03424
G1 X166.534 Y159.487 E.20597
G1 X168.841 Y159.227 E.07279
G1 X170.913 Y158.502 E.06883
G1 X172.771 Y157.334 E.06881
G1 X174.324 Y155.781 E.06886
G1 X175.492 Y153.923 E.06881
G1 X176.217 Y151.851 E.06883
G1 X176.481 Y149.503 E.07408
G1 X176.481 Y96.584 E1.65924
G1 X176.217 Y94.237 E.07405
G1 X175.492 Y92.165 E.06883
G1 X174.324 Y90.306 E.06884
G1 X172.771 Y88.754 E.06884
G1 X170.912 Y87.586 E.06884
G1 X168.841 Y86.86 E.06881
G1 X166.496 Y86.596 E.07399
G1 X134.324 Y86.596 E1.00873
G1 X131.977 Y86.86 E.07405
G1 X129.905 Y87.586 E.06884
G1 X128.047 Y88.754 E.06881
